svgs/duotone/pen-fancy-slash.svg

<svg xmlns="http://www.w3.org/2000/svg" viewBox="0 0 640 512"><!--! Font Awesome Pro 6.3.0 by @fontawesome - https://fontawesome.com License - https://fontawesome.com/license (Commercial License) Copyright 2023 Fonticons, Inc. --><defs><style>.fa-secondary{opacity:.4}</style></defs><path class="fa-primary" d="M5.112 9.196C13.29-1.236 28.37-3.065 38.81 5.112L630.8 469.1C641.2 477.3 643.1 492.4 634.9 502.8C626.7 513.2 611.6 515.1 601.2 506.9L9.196 42.89C-1.236 34.71-3.065 19.63 5.112 9.196V9.196z"/><path class="fa-secondary" d="M287.1 199.7L437.5 27.11C452.5 9.885 474.2 0 497 0C540.6 0 576 35.36 576 78.98C576 101.8 566.1 123.5 548.9 138.5L387.9 278.7L287.1 199.7zM299.9 425.1C295.9 442.2 282.9 455.8 266 460.5L88.35 510.3L183.7 414.9C186.4 415.6 189.1 416 192 416C209.7 416 224 401.7 224 384C224 366.3 209.7 352 192 352C174.3 352 160 366.3 160 384C160 386.9 160.4 389.6 161.1 392.3L65.72 487.6L115.5 309.1C120.2 293.1 133.8 280.1 150.9 276.1L211 262.3L317.1 346.5L299.9 425.1z"/></svg>

<svg xmlns="http://www.w3.org/2000/svg" viewBox="0 0 640 512"><!--! Font Awesome Pro 6.4.0 by @fontawesome - https://fontawesome.com License - https://fontawesome.com/license (Commercial License) Copyright 2023 Fonticons, Inc. --><defs><style>.fa-secondary{opacity:.4}</style></defs><path class="fa-primary" d="M5.1 9.2C13.3-1.2 28.4-3.1 38.8 5.1l592 464c10.4 8.2 12.3 23.3 4.1 33.7s-23.3 12.3-33.7 4.1L9.2 42.9C-1.2 34.7-3.1 19.6 5.1 9.2z"/><path class="fa-secondary" d="M211 262.3l107 84.3-18.1 78.6c-3.9 17.1-16.9 30.7-33.8 35.4L88.4 510.3l95.4-95.4c2.6 .7 5.4 1.1 8.3 1.1c17.7 0 32-14.3 32-32s-14.3-32-32-32s-32 14.3-32 32c0 2.9 .4 5.6 1.1 8.3L65.7 487.6 115.5 310c4.7-16.9 18.3-29.9 35.4-33.8L211 262.3zM548.9 138.5l-161 140.2-100.8-79L437.5 27.1C452.5 9.9 474.2 0 497 0c43.6 0 79 35.4 79 79c0 22.8-9.9 44.6-27.1 59.6z"/></svg>
